X:1
T:Minuet in A
T:Minuet in A
T:K. 15i
T:W. A. Mozart
C:W. A. Mozart
%%score { 1 | 2 }
L:1/8
Q:1/4=95
M:3/4
K:A
V:1 treble nm="Piano" snm="Pno."
V:2 bass 
V:1
"^Minuet" [Ace]4 (3agf | [Ace]4 (3fed | [EAc]4 (3dcB | A2 E2 z2 | Ff a4 | Ee a4 | e2 d2 cd | %7
{c} B6 :: EeFfGg | (ae) Te4 | (3Eee (3Fff (3Ggg | (ae) Te4 | Ff a4 | Ee a4 | (3(fed) c2 TB2 | A6 :| %16
V:2
 A,2 A,,2 z2 | A,2 A,,2 z2 | A,2 A,,2 z2 | A,A,,C,E, A,2 | z2 z D,F,D, | z2 z C,E,C, | %6
 B,,2 G,2 A,2 | E,2 B,,2 E,,2 :: E,2 ^D,2 =D,2 | C,2 z A,,C,A,, | E,2 ^D,2 =D,2 | C,2 z A,,C,A,, | %12
 D,2 z D,F,D, | z2 z C,E,C, | D,2 E,2 E,,2 | A,,2 E,2 A,2 :| %16

